svg/filled/edit.svg

<svg width="24" height="24" viewBox="0 0 24 24" fill="none" xmlns="http://www.w3.org/2000/svg">
<path d="M3.99512 17.2072V19.5C3.99512 19.7761 4.21897 20 4.49512 20H6.79289C6.9255 20 7.05268 19.9473 7.14645 19.8536L16.5942 10.4058L13.5935 7.40518L4.14163 16.8535C4.04782 16.9473 3.99512 17.0745 3.99512 17.2072Z" fill="black"/>
<path d="M14.8322 6.16693L17.8327 9.16734L19.2929 7.7071C19.6834 7.31658 19.6834 6.68341 19.2929 6.29289L17.707 4.70697C17.3165 4.3165 16.6834 4.31644 16.2929 4.70684L14.8322 6.16693Z" fill="black"/>
</svg>

<svg xmlns="http://www.w3.org/2000/svg" viewBox="0 0 24 24" fill="currentColor">
  <path d="M3.995 17.207V19.5a.5.5 0 00.5.5h2.298a.5.5 0 00.353-.146l9.448-9.448-3-3-9.452 9.448a.5.5 0 00-.147.353zM14.832 6.167l3 3 1.46-1.46a1 1 0 000-1.414l-1.585-1.586a1 1 0 00-1.414 0l-1.46 1.46z"/>
</svg>
